X:17327
T:The Weaver and his Wife
R:jig
C:Trad.
M:6/8
L:1/8
K:A
e |\
"A"E2E EAB | c3  A3  | c3  A2c | "E7"edc B3 |\
"E7"E2E EBc | d3 B3 | E2e dcB | "A"A3 A3 :|
"A"EAc e3  | EAB c3  | EAc edc | "Bm"d3-d2B/c/ |\
"E7"ded BdB | G3  "B7"F3  | "E7"E2e dcB | "A"A3-A2G/F/ |
"A"EAc e3  | EAe c3  | EAc edc | "Bm"d3-d2B/c/ |\
"E7"ded BdB | G3  "B7"F3  | "E7"E2e dcB | "A"A3-A2 |]
